X:35
T:Rocky Road to Dublin
R:slip jig
H:See also #50
Z:id:hn-slipjig-6
Z:Ador
M:9/8
L:1/8
K:G
|:e=fe d2B ~A3|E2A A2A Bcd|e=fe d2B A2c|B2G G2A Bcd:|
e2a a2f ~g3|e2a a2f g2d|e2a a2f g2e|d2B G2A Bcd|
e2a a2f ~g3|e2a a2A Bcd|efg fga g2e|d2B G2A Bcd||
ecA ecA A2a|ecA ecA Bcd|ecA ecA a2c|~d3 G2A Bcd|
ecA ecA A2a|ecA ecA ~B3|efg fga gfe|d2B G2A Bcd||
